X: 5557
T: Burst Pipes
R: reel
M: 4/4
K: Eminor
|:EFGA B3 A|G2G2 B3 B|A2 F2 F3 E|DEFG F3E|
EFGA B3 A|G2G2 B3 B|A2 F2 F2 D2|E8:|
|:d2 B2 B3 A|GABc d3 B|A2 F2 F3 E|DEFG A4|
d2 B2 B3 A|GABc d3 B|A2 F2 d2 F2|E8:|

